X:352
T: ICH SCHIFFE AUF DER SEE
N: E1510
O: Europa, Mitteleuropa, Deutschland, Kuestrin
R: Staende -, Seemanns - Lied, Schiffbruch
M: 4/4
L: 1/16
K: G
G4 | d4d4d3Bc3A | G8z4
B4 | A4c4B3Gd3B | B4A4z4
G4 | d4d4d3Bc3A | G8z4
B4 | A4c4B3Gd3B | B4A4z6
c2 | B2G2d2B2A4z2
c2 | B2G2d2B2A4z2
c2 | B2G2d2B2A4z2
c2 | B2G2d2B2A4
e4 | e4d4z4
c4 | B2d2g2e2d3Bc3A | G8z4

